Sources/FrostedUI/Resources/Icons.xcassets/sparkle16.imageset/sparkle-16.svg

<svg width="16" height="16" viewBox="0 0 16 16" fill="none" xmlns="http://www.w3.org/2000/svg" data-fui-icon="true">
  <g clip-path="url(#clip0_882_1123)">
    <path
      d="M4.5 7C4.90678 7 5.27296 7.22939 5.4541 7.58301L5.52051 7.74219L6.18848 9.81055L8.25781 10.4795C8.70021 10.6226 9 11.035 9 11.5C9 11.965 8.70021 12.3774 8.25781 12.5205L6.18848 13.1885L5.52051 15.2578C5.37737 15.7002 4.96498 16 4.5 16C4.03502 16 3.62263 15.7002 3.47949 15.2578L2.81055 13.1885L0.742188 12.5205C0.299788 12.3774 0 11.965 0 11.5C0 11.035 0.299788 10.6226 0.742188 10.4795L2.81055 9.81055L3.47949 7.74219C3.62263 7.29979 4.03502 7 4.5 7ZM4.19824 10.3936C4.07473 10.7753 3.77529 11.0747 3.39355 11.1982L2.46094 11.5L3.39355 11.8018C3.72759 11.9098 3.9993 12.1521 4.14453 12.4668L4.19824 12.6064L4.5 13.5381L4.80176 12.6064L4.85547 12.4668C5.0007 12.1521 5.27241 11.9098 5.60645 11.8018L6.53809 11.5L5.60645 11.1982C5.22471 11.0747 4.92527 10.7753 4.80176 10.3936L4.5 9.46094L4.19824 10.3936ZM10.6016 0.00390625C11.1075 0.0444039 11.5448 0.385212 11.7041 0.874023L12.5049 3.33398C12.5296 3.40998 12.59 3.47038 12.666 3.49512L15.126 4.2959C15.6472 4.46578 16 4.95174 16 5.5C16 6.04826 15.6472 6.53422 15.126 6.7041L12.666 7.50488C12.59 7.52962 12.5296 7.59002 12.5049 7.66602L11.7041 10.126C11.5342 10.6472 11.0483 11 10.5 11C9.95174 11 9.46578 10.6472 9.2959 10.126L8.49512 7.66602C8.47038 7.59002 8.40998 7.52962 8.33398 7.50488L5.87402 6.7041C5.35278 6.53422 5 6.04826 5 5.5C5 4.95174 5.35278 4.46578 5.87402 4.2959L8.33398 3.49512C8.40998 3.47037 8.47038 3.40998 8.49512 3.33398L9.2959 0.874023L9.33105 0.77832C9.5264 0.310002 9.98596 0 10.5 0L10.6016 0.00390625ZM9.9209 3.79883C9.7477 4.33075 9.33075 4.7477 8.79883 4.9209L7.01953 5.5L8.79883 6.0791C9.33076 6.2523 9.7477 6.66925 9.9209 7.20117L10.5 8.97949L11.0791 7.20117C11.2523 6.66925 11.6692 6.2523 12.2012 6.0791L13.9795 5.5L12.2012 4.9209C11.6692 4.7477 11.2523 4.33075 11.0791 3.79883L10.5 2.01953L9.9209 3.79883Z"
      fill="currentColor"
    />
  </g>
  <defs>
    <clipPath id="clip0_882_1123"><path fill="currentColor" d="M0 0H16V16H0z" /></clipPath>
  </defs>
</svg>

<svg xmlns="http://www.w3.org/2000/svg" width="16" height="16" fill="none" data-fui-icon="true" viewBox="0 0 16 16"><g clip-path="url(#a)"><path fill="currentColor" d="M4.5 7c.407 0 .773.23.954.583l.067.16.667 2.068 2.07.668a1.073 1.073 0 0 1 0 2.042l-2.07.667-.667 2.07a1.073 1.073 0 0 1-2.042 0l-.668-2.07-2.069-.668a1.073 1.073 0 0 1 0-2.04l2.069-.67.668-2.068A1.07 1.07 0 0 1 4.5 7m-.302 3.394a1.25 1.25 0 0 1-.804.804l-.933.302.933.302c.334.108.605.35.75.665l.054.14.302.931.302-.932.053-.14a1.25 1.25 0 0 1 .751-.664l.932-.302-.932-.302a1.25 1.25 0 0 1-.804-.804L4.5 9.46zM10.602.004c.505.04.943.381 1.102.87l.8 2.46a.25.25 0 0 0 .162.161l2.46.8a1.266 1.266 0 0 1 0 2.41l-2.46.8a.25.25 0 0 0-.161.161l-.8 2.46a1.266 1.266 0 0 1-2.41 0l-.8-2.46a.25.25 0 0 0-.161-.161l-2.46-.8a1.266 1.266 0 0 1 0-2.41l2.46-.8a.25.25 0 0 0 .161-.161l.8-2.46.036-.096A1.27 1.27 0 0 1 10.5 0zM9.92 3.799A1.75 1.75 0 0 1 8.799 4.92l-1.78.579 1.78.58c.532.172.949.59 1.122 1.121L10.5 8.98l.58-1.778A1.75 1.75 0 0 1 12.2 6.08L13.98 5.5l-1.778-.58A1.75 1.75 0 0 1 11.08 3.8l-.579-1.78z"/></g><defs><clipPath id="a"><path fill="currentColor" d="M0 0h16v16H0z"/></clipPath></defs></svg>
